web/assets/img/functions/520_19.svg

<svg id="vector" xmlns="http://www.w3.org/2000/svg" width="512" height="512" viewBox="0 0 512 512">
    <defs>
        <clipPath id="clip_path_0">
            <path d="M0,0h512v512h-512z"/>
        </clipPath>
    </defs>
    <g id="g_0">
        <path fill="#000000"
              d="M502,173.4C504.65,173.4 507.2,172.35 509.07,170.47C510.95,168.6 512,166.05 512,163.4C512,160.75 510.95,158.2 509.07,156.33C507.2,154.45 504.65,153.4 502,153.4H476V111H502C504.65,111 507.2,109.95 509.07,108.07C510.95,106.2 512,103.65 512,101C512,98.35 510.95,95.8 509.07,93.93C507.2,92.05 504.65,91 502,91H476V66C476,58.04 472.84,50.41 467.21,44.79C461.59,39.16 453.96,36 446,36H422V11C422,8.35 420.95,5.8 419.07,3.93C417.2,2.05 414.65,1 412,1C409.35,1 406.8,2.05 404.93,3.93C403.05,5.8 402,8.35 402,11V36H359.6V11C359.6,8.35 358.55,5.8 356.67,3.93C354.8,2.05 352.25,1 349.6,1C346.95,1 344.4,2.05 342.53,3.93C340.65,5.8 339.6,8.35 339.6,11V36H297.2V11C297.2,8.35 296.15,5.8 294.27,3.93C292.4,2.05 289.85,1 287.2,1C284.55,1 282,2.05 280.13,3.93C278.25,5.8 277.2,8.35 277.2,11V36H234.8V11C234.8,8.35 233.75,5.8 231.87,3.93C230,2.05 227.45,1 224.8,1C222.15,1 219.6,2.05 217.73,3.93C215.85,5.8 214.8,8.35 214.8,11V36H172.4V11C172.4,8.35 171.35,5.8 169.47,3.93C167.6,2.05 165.05,1 162.4,1C159.75,1 157.2,2.05 155.33,3.93C153.45,5.8 152.4,8.35 152.4,11V36H110V11C110,8.35 108.95,5.8 107.07,3.93C105.2,2.05 102.65,1 100,1C97.35,1 94.8,2.05 92.93,3.93C91.05,5.8 90,8.35 90,11V36H66C58.04,36 50.41,39.16 44.79,44.79C39.16,50.41 36,58.04 36,66V91H10C7.35,91 4.8,92.05 2.93,93.93C1.05,95.8 0,98.35 0,101C0,103.65 1.05,106.2 2.93,108.07C4.8,109.95 7.35,111 10,111H36V153.4H10C7.35,153.4 4.8,154.45 2.93,156.33C1.05,158.2 0,160.75 0,163.4C0,166.05 1.05,168.6 2.93,170.47C4.8,172.35 7.35,173.4 10,173.4H36V215.8H10C7.35,215.8 4.8,216.85 2.93,218.73C1.05,220.6 0,223.15 0,225.8C0,228.45 1.05,231 2.93,232.87C4.8,234.75 7.35,235.8 10,235.8H36V278.2H10C7.35,278.2 4.8,279.25 2.93,281.13C1.05,283 0,285.55 0,288.2C0,290.85 1.05,293.4 2.93,295.27C4.8,297.15 7.35,298.2 10,298.2H36V340.6H10C7.35,340.6 4.8,341.65 2.93,343.53C1.05,345.4 0,347.95 0,350.6C0,353.25 1.05,355.8 2.93,357.67C4.8,359.55 7.35,360.6 10,360.6H36V403H10C7.35,403 4.8,404.05 2.93,405.93C1.05,407.8 0,410.35 0,413C0,415.65 1.05,418.2 2.93,420.07C4.8,421.95 7.35,423 10,423H36V446C36,453.96 39.16,461.59 44.79,467.21C50.41,472.84 58.04,476 66,476H90V503C90,505.65 91.05,508.2 92.93,510.07C94.8,511.95 97.35,513 100,513C102.65,513 105.2,511.95 107.07,510.07C108.95,508.2 110,505.65 110,503V476H214.8V503C214.8,505.65 215.85,508.2 217.73,510.07C219.6,511.95 222.15,513 224.8,513C227.45,513 230,511.95 231.87,510.07C233.75,508.2 234.8,505.65 234.8,503V476H277.2V503C277.2,505.65 278.25,508.2 280.13,510.07C282,511.95 284.55,513 287.2,513C289.85,513 292.4,511.95 294.27,510.07C296.15,508.2 297.2,505.65 297.2,503V476H339.6V503C339.6,505.65 340.65,508.2 342.53,510.07C344.4,511.95 346.95,513 349.6,513C352.25,513 354.8,511.95 356.67,510.07C358.55,508.2 359.6,505.65 359.6,503V476H402V503C402,505.65 403.05,508.2 404.93,510.07C406.8,511.95 409.35,513 412,513C414.65,513 417.2,511.95 419.07,510.07C420.95,508.2 422,505.65 422,503V476H446C453.96,476 461.59,472.84 467.21,467.21C472.84,461.59 476,453.96 476,446V423H502C504.65,423 507.2,421.95 509.07,420.07C510.95,418.2 512,415.65 512,413C512,410.35 510.95,407.8 509.07,405.93C507.2,404.05 504.65,403 502,403H476V360.6H502C504.65,360.6 507.2,359.55 509.07,357.67C510.95,355.8 512,353.25 512,350.6C512,347.95 510.95,345.4 509.07,343.53C507.2,341.65 504.65,340.6 502,340.6H476V298.2H502C504.65,298.2 507.2,297.15 509.07,295.27C510.95,293.4 512,290.85 512,288.2C512,285.55 510.95,283 509.07,281.13C507.2,279.25 504.65,278.2 502,278.2H476V235.8H502C504.65,235.8 507.2,234.75 509.07,232.87C510.95,231 512,228.45 512,225.8C512,223.15 510.95,220.6 509.07,218.73C507.2,216.85 504.65,215.8 502,215.8H476V173.4H502ZM456,446C456,448.65 454.95,451.2 453.07,453.07C451.2,454.95 448.65,456 446,456H297.2V388C297.2,386.67 297.73,385.4 298.66,384.46C299.6,383.53 300.87,383 302.2,383H397C398.33,383 399.6,382.47 400.54,381.54C401.47,380.6 402,379.33 402,378V328.28C395.53,330.57 388.47,330.57 382,328.28V358C382,359.33 381.47,360.6 380.54,361.54C379.6,362.47 378.33,363 377,363H282.2C280.87,363 279.6,363.53 278.66,364.46C277.73,365.4 277.2,366.67 277.2,368V456H110V416.83L167.47,384.27C168.24,383.83 168.88,383.2 169.32,382.44C169.77,381.67 170,380.8 170,379.92V329.92C163.61,332.45 156.55,332.7 150,330.64V368.28C150,369.16 149.77,370.03 149.32,370.8C148.88,371.56 148.24,372.19 147.47,372.63L90,405.17V456H66C63.35,456 60.8,454.95 58.93,453.07C57.05,451.2 56,448.65 56,446V173.4H155.79C157.11,173.4 158.38,173.93 159.32,174.86L214.13,229.67C217.19,223.53 222.26,218.62 228.49,215.75L167.6,154.86C166.66,153.93 165.39,153.4 164.07,153.4H56V66C56,63.35 57.05,60.8 58.93,58.93C60.8,57.05 63.35,56 66,56H277.2V105.17C277.2,106.49 277.73,107.76 278.66,108.7L330,160C332.99,153.83 337.99,148.85 344.18,145.9L298.7,100.42C297.77,99.48 297.24,98.21 297.24,96.89V56H446C448.65,56 451.2,57.05 453.07,58.93C454.95,60.8 456,63.35 456,66V446Z"
              clip-path="url(#clip_path_0)"/>
        <path fill="#000000"
              d="M351.19,164.87C350.89,165.3 350.55,165.7 350.19,166.07C349.8,166.46 349.38,166.82 348.93,167.13C349.56,166.26 350.32,165.5 351.19,164.87Z"/>
        <path fill="#000000"
              d="M241,213C236.68,212.99 232.41,213.93 228.49,215.75C222.26,218.62 217.19,223.53 214.13,229.67C212.06,233.81 210.99,238.37 211,243C211,248.93 212.76,254.73 216.06,259.67C219.35,264.6 224.04,268.45 229.52,270.72C235,272.99 241.03,273.58 246.85,272.42C252.67,271.27 258.02,268.41 262.21,264.21C266.41,260.02 269.27,254.67 270.42,248.85C271.58,243.03 270.99,237 268.72,231.52C266.45,226.04 262.6,221.35 257.67,218.06C252.73,214.76 246.93,213 241,213ZM241,253C239.02,253 237.09,252.41 235.44,251.32C233.8,250.22 232.52,248.65 231.76,246.83C231,245 230.81,242.99 231.19,241.05C231.58,239.11 232.53,237.33 233.93,235.93C235.33,234.53 237.11,233.58 239.05,233.19C240.99,232.81 243,233 244.83,233.76C246.65,234.52 248.22,235.8 249.32,237.44C250.41,239.09 251,241.02 251,243C251,245.65 249.95,248.2 248.07,250.07C246.2,251.95 243.65,253 241,253Z"/>
        <path fill="#00D151"
              d="M357,143C352.55,142.99 348.16,143.99 344.14,145.9C337.96,148.86 332.98,153.83 330,160C327.18,165.87 326.34,172.49 327.62,178.87C328.89,185.26 332.21,191.05 337.06,195.38C341.92,199.72 348.05,202.35 354.54,202.9C361.03,203.44 367.51,201.85 373.02,198.39C378.53,194.92 382.76,189.75 385.08,183.67C387.39,177.59 387.66,170.92 385.86,164.66C384.05,158.41 380.25,152.92 375.05,149.01C369.84,145.1 363.51,142.99 357,143ZM357,183C354.35,183 351.8,181.95 349.93,180.07C348.05,178.2 347,175.65 347,173C346.99,170.89 347.66,168.84 348.9,167.14C349.9,165.75 351.25,164.65 352.8,163.93C354.35,163.21 356.07,162.9 357.77,163.03C359.48,163.16 361.12,163.73 362.55,164.68C363.97,165.63 365.13,166.93 365.91,168.45C366.69,169.98 367.06,171.68 367,173.39C366.93,175.1 366.42,176.76 365.53,178.22C364.64,179.68 363.38,180.89 361.89,181.73C360.4,182.56 358.71,183 357,183Z"/>
        <path fill="#000000"
              d="M392,270C384.92,270 378.08,272.51 372.67,277.07C367.26,281.63 363.64,287.95 362.44,294.93C361.25,301.9 362.55,309.07 366.13,315.17C369.71,321.28 375.33,325.92 382,328.28C388.47,330.57 395.53,330.57 402,328.28C408.67,325.92 414.29,321.28 417.87,315.17C421.45,309.07 422.75,301.9 421.56,294.93C420.36,287.95 416.74,281.63 411.33,277.07C405.92,272.51 399.07,270 392,270ZM392,310C390.02,310 388.09,309.41 386.44,308.32C384.8,307.22 383.52,305.65 382.76,303.83C382,302 381.81,299.99 382.19,298.05C382.58,296.11 383.53,294.33 384.93,292.93C386.33,291.53 388.11,290.58 390.05,290.19C391.99,289.81 394,290 395.83,290.76C397.65,291.52 399.22,292.8 400.31,294.44C401.41,296.09 402,298.02 402,300C402,302.65 400.95,305.2 399.07,307.07C397.2,308.95 394.65,310 392,310Z"/>
        <path fill="#00D151"
              d="M159,272C151.04,272 143.41,275.16 137.79,280.79C132.16,286.41 129,294.04 129,302C129,309.96 132.16,317.59 137.79,323.21C143.41,328.84 151.04,332 159,332C162.77,332.01 166.5,331.29 170,329.9C176.49,327.33 181.89,322.58 185.25,316.47C188.62,310.36 189.75,303.26 188.45,296.4C187.14,289.54 183.49,283.35 178.12,278.9C172.74,274.45 165.98,272.01 159,272ZM159,312C157.02,312 155.09,311.41 153.44,310.32C151.8,309.22 150.52,307.65 149.76,305.83C149,304 148.81,301.99 149.19,300.05C149.58,298.11 150.53,296.33 151.93,294.93C153.33,293.53 155.11,292.58 157.05,292.19C158.99,291.81 161,292 162.83,292.76C164.65,293.52 166.22,294.8 167.32,296.44C168.41,298.09 169,300.02 169,302C169,303.31 168.74,304.61 168.24,305.83C167.74,307.04 167,308.14 166.07,309.07C165.14,310 164.04,310.74 162.83,311.24C161.61,311.74 160.31,312 159,312Z"/>
    </g>
</svg>

<?xml version="1.0" encoding="utf-8"?>
<!-- Generator: Adobe Illustrator 28.2.0, SVG Export Plug-In . SVG Version: 6.00 Build 0)  -->
<svg version="1.1" id="vector" xmlns="http://www.w3.org/2000/svg" xmlns:xlink="http://www.w3.org/1999/xlink" x="0px" y="0px"
	 viewBox="0 0 512 512" style="enable-background:new 0 0 512 512;" xml:space="preserve">
<style type="text/css">
	.st0{clip-path:url(#SVGID_00000069379313113077092090000011418855230666717325_);}
	.st1{fill:#33B0DF;}
</style>
<g id="g_0">
	<g>
		<defs>
			<rect id="SVGID_1_" y="0" width="512" height="512"/>
		</defs>
		<clipPath id="SVGID_00000058580298143612651910000001877868705726368935_">
			<use xlink:href="#SVGID_1_"  style="overflow:visible;"/>
		</clipPath>
		<path style="clip-path:url(#SVGID_00000058580298143612651910000001877868705726368935_);" d="M502,173.4c2.6,0,5.2-1,7.1-2.9
			c1.9-1.9,2.9-4.4,2.9-7.1c0-2.6-1-5.2-2.9-7.1c-1.9-1.9-4.4-2.9-7.1-2.9h-26V111h26c2.6,0,5.2-1.1,7.1-2.9
			c1.9-1.9,2.9-4.4,2.9-7.1s-1-5.2-2.9-7.1c-1.9-1.9-4.4-2.9-7.1-2.9h-26V66c0-8-3.2-15.6-8.8-21.2C461.6,39.2,454,36,446,36h-24V11
			c0-2.6-1-5.2-2.9-7.1C417.2,2,414.6,1,412,1s-5.2,1-7.1,2.9C403,5.8,402,8.4,402,11v25h-42.4V11c0-2.6-1.1-5.2-2.9-7.1
			C354.8,2,352.2,1,349.6,1s-5.2,1-7.1,2.9c-1.9,1.9-2.9,4.4-2.9,7.1v25h-42.4V11c0-2.6-1.1-5.2-2.9-7.1C292.4,2,289.9,1,287.2,1
			c-2.7,0-5.2,1-7.1,2.9c-1.9,1.9-2.9,4.4-2.9,7.1v25h-42.4V11c0-2.6-1.1-5.2-2.9-7.1C230,2,227.4,1,224.8,1c-2.7,0-5.2,1-7.1,2.9
			c-1.9,1.9-2.9,4.4-2.9,7.1v25h-42.4V11c0-2.6-1-5.2-2.9-7.1C167.6,2,165.1,1,162.4,1c-2.6,0-5.2,1-7.1,2.9
			c-1.9,1.9-2.9,4.4-2.9,7.1v25H110V11c0-2.6-1.1-5.2-2.9-7.1C105.2,2,102.7,1,100,1s-5.2,1-7.1,2.9C91.1,5.8,90,8.4,90,11v25H66
			c-8,0-15.6,3.2-21.2,8.8C39.2,50.4,36,58,36,66v25H10c-2.7,0-5.2,1.1-7.1,2.9C1,95.8,0,98.3,0,101s1,5.2,2.9,7.1
			c1.9,1.9,4.4,2.9,7.1,2.9h26v42.4H10c-2.7,0-5.2,1.1-7.1,2.9C1,158.2,0,160.8,0,163.4c0,2.7,1,5.2,2.9,7.1
			c1.9,1.9,4.4,2.9,7.1,2.9h26v42.4H10c-2.7,0-5.2,1.1-7.1,2.9C1,220.6,0,223.1,0,225.8c0,2.6,1,5.2,2.9,7.1
			c1.9,1.9,4.4,2.9,7.1,2.9h26v42.4H10c-2.7,0-5.2,1-7.1,2.9C1,283,0,285.5,0,288.2c0,2.6,1,5.2,2.9,7.1c1.9,1.9,4.4,2.9,7.1,2.9h26
			v42.4H10c-2.7,0-5.2,1-7.1,2.9C1,345.4,0,348,0,350.6s1,5.2,2.9,7.1c1.9,1.9,4.4,2.9,7.1,2.9h26V403H10c-2.7,0-5.2,1-7.1,2.9
			C1,407.8,0,410.4,0,413s1,5.2,2.9,7.1C4.8,422,7.3,423,10,423h26v23c0,8,3.2,15.6,8.8,21.2C50.4,472.8,58,476,66,476h24v27
			c0,2.6,1.1,5.2,2.9,7.1c1.9,1.9,4.4,2.9,7.1,2.9s5.2-1,7.1-2.9c1.9-1.9,2.9-4.4,2.9-7.1v-27h104.8v27c0,2.6,1.1,5.2,2.9,7.1
			c1.9,1.9,4.4,2.9,7.1,2.9c2.6,0,5.2-1,7.1-2.9c1.9-1.9,2.9-4.4,2.9-7.1v-27h42.4v27c0,2.6,1,5.2,2.9,7.1c1.9,1.9,4.4,2.9,7.1,2.9
			c2.6,0,5.2-1,7.1-2.9c1.9-1.9,2.9-4.4,2.9-7.1v-27h42.4v27c0,2.6,1,5.2,2.9,7.1c1.9,1.9,4.4,2.9,7.1,2.9s5.2-1,7.1-2.9
			c1.9-1.9,2.9-4.4,2.9-7.1v-27H402v27c0,2.6,1,5.2,2.9,7.1c1.9,1.9,4.4,2.9,7.1,2.9s5.2-1,7.1-2.9c1.9-1.9,2.9-4.4,2.9-7.1v-27h24
			c8,0,15.6-3.2,21.2-8.8c5.6-5.6,8.8-13.2,8.8-21.2v-23h26c2.6,0,5.2-1,7.1-2.9c1.9-1.9,2.9-4.4,2.9-7.1s-1-5.2-2.9-7.1
			c-1.9-1.9-4.4-2.9-7.1-2.9h-26v-42.4h26c2.6,0,5.2-1.1,7.1-2.9c1.9-1.9,2.9-4.4,2.9-7.1s-1-5.2-2.9-7.1c-1.9-1.9-4.4-2.9-7.1-2.9
			h-26v-42.4h26c2.6,0,5.2-1.1,7.1-2.9c1.9-1.9,2.9-4.4,2.9-7.1c0-2.7-1-5.2-2.9-7.1c-1.9-1.9-4.4-2.9-7.1-2.9h-26v-42.4h26
			c2.6,0,5.2-1.1,7.1-2.9c1.9-1.9,2.9-4.4,2.9-7.1c0-2.7-1-5.2-2.9-7.1c-1.9-1.9-4.4-2.9-7.1-2.9h-26v-42.4H502z M456,446
			c0,2.6-1,5.2-2.9,7.1c-1.9,1.9-4.4,2.9-7.1,2.9H297.2v-68c0-1.3,0.5-2.6,1.5-3.5c0.9-0.9,2.2-1.5,3.5-1.5H397
			c1.3,0,2.6-0.5,3.5-1.5c0.9-0.9,1.5-2.2,1.5-3.5v-49.7c-6.5,2.3-13.5,2.3-20,0V358c0,1.3-0.5,2.6-1.5,3.5
			c-0.9,0.9-2.2,1.5-3.5,1.5h-94.8c-1.3,0-2.6,0.5-3.5,1.5c-0.9,0.9-1.5,2.2-1.5,3.5v88H110v-39.2l57.5-32.6
			c0.8-0.4,1.4-1.1,1.9-1.8c0.4-0.8,0.7-1.6,0.7-2.5v-50c-6.4,2.5-13.4,2.8-20,0.7v37.6c0,0.9-0.2,1.8-0.7,2.5
			c-0.4,0.8-1.1,1.4-1.9,1.8L90,405.2V456H66c-2.7,0-5.2-1-7.1-2.9c-1.9-1.9-2.9-4.4-2.9-7.1V173.4h99.8c1.3,0,2.6,0.5,3.5,1.5
			l54.8,54.8c3.1-6.1,8.1-11.1,14.4-13.9l-60.9-60.9c-0.9-0.9-2.2-1.5-3.5-1.5H56V66c0-2.7,1-5.2,2.9-7.1C60.8,57,63.3,56,66,56
			h211.2v49.2c0,1.3,0.5,2.6,1.5,3.5L330,160c3-6.2,8-11.1,14.2-14.1l-45.5-45.5c-0.9-0.9-1.5-2.2-1.5-3.5V56H446
			c2.6,0,5.2,1,7.1,2.9c1.9,1.9,2.9,4.4,2.9,7.1V446z"/>
	</g>
	<path d="M351.2,164.9c-0.3,0.4-0.6,0.8-1,1.2c-0.4,0.4-0.8,0.8-1.3,1.1C349.6,166.3,350.3,165.5,351.2,164.9z"/>
	<path d="M241,213c-4.3,0-8.6,0.9-12.5,2.8c-6.2,2.9-11.3,7.8-14.4,13.9c-2.1,4.1-3.1,8.7-3.1,13.3c0,5.9,1.8,11.7,5.1,16.7
		c3.3,4.9,8,8.8,13.5,11c5.5,2.3,11.5,2.9,17.3,1.7c5.8-1.2,11.2-4,15.4-8.2c4.2-4.2,7.1-9.5,8.2-15.4c1.2-5.8,0.6-11.9-1.7-17.3
		c-2.3-5.5-6.1-10.2-11-13.5C252.7,214.8,246.9,213,241,213z M241,253c-2,0-3.9-0.6-5.6-1.7c-1.6-1.1-2.9-2.7-3.7-4.5
		c-0.8-1.8-0.9-3.8-0.6-5.8c0.4-1.9,1.3-3.7,2.7-5.1c1.4-1.4,3.2-2.3,5.1-2.7c1.9-0.4,3.9-0.2,5.8,0.6c1.8,0.8,3.4,2,4.5,3.7
		c1.1,1.6,1.7,3.6,1.7,5.6c0,2.6-1.1,5.2-2.9,7.1C246.2,251.9,243.6,253,241,253z"/>
	<path class="st1" d="M357,143c-4.5,0-8.8,1-12.9,2.9c-6.2,3-11.2,7.9-14.1,14.1c-2.8,5.9-3.7,12.5-2.4,18.9
		c1.3,6.4,4.6,12.2,9.4,16.5c4.9,4.3,11,7,17.5,7.5c6.5,0.5,13-1,18.5-4.5c5.5-3.5,9.7-8.6,12.1-14.7c2.3-6.1,2.6-12.8,0.8-19
		c-1.8-6.2-5.6-11.7-10.8-15.7C369.8,145.1,363.5,143,357,143z M357,183c-2.6,0-5.2-1.1-7.1-2.9c-1.9-1.9-2.9-4.4-2.9-7.1
		c0-2.1,0.7-4.2,1.9-5.9c1-1.4,2.4-2.5,3.9-3.2c1.6-0.7,3.3-1,5-0.9c1.7,0.1,3.4,0.7,4.8,1.6c1.4,1,2.6,2.2,3.4,3.8
		c0.8,1.5,1.1,3.2,1.1,4.9c-0.1,1.7-0.6,3.4-1.5,4.8c-0.9,1.5-2.1,2.7-3.6,3.5C360.4,182.6,358.7,183,357,183z"/>
	<path d="M392,270c-7.1,0-13.9,2.5-19.3,7.1c-5.4,4.6-9,10.9-10.2,17.9c-1.2,7,0.1,14.1,3.7,20.2c3.6,6.1,9.2,10.8,15.9,13.1
		c6.5,2.3,13.5,2.3,20,0c6.7-2.4,12.3-7,15.9-13.1c3.6-6.1,4.9-13.3,3.7-20.2c-1.2-7-4.8-13.3-10.2-17.9
		C405.9,272.5,399.1,270,392,270z M392,310c-2,0-3.9-0.6-5.6-1.7c-1.6-1.1-2.9-2.7-3.7-4.5c-0.8-1.8-1-3.8-0.6-5.8
		c0.4-1.9,1.3-3.7,2.7-5.1s3.2-2.4,5.1-2.7c1.9-0.4,4-0.2,5.8,0.6c1.8,0.8,3.4,2,4.5,3.7c1.1,1.6,1.7,3.6,1.7,5.6
		c0,2.6-1,5.2-2.9,7.1C397.2,309,394.6,310,392,310z"/>
	<path class="st1" d="M159,272c-8,0-15.6,3.2-21.2,8.8c-5.6,5.6-8.8,13.2-8.8,21.2s3.2,15.6,8.8,21.2c5.6,5.6,13.2,8.8,21.2,8.8
		c3.8,0,7.5-0.7,11-2.1c6.5-2.6,11.9-7.3,15.2-13.4c3.4-6.1,4.5-13.2,3.2-20.1c-1.3-6.9-5-13-10.3-17.5C172.7,274.5,166,272,159,272
		z M159,312c-2,0-3.9-0.6-5.6-1.7c-1.6-1.1-2.9-2.7-3.7-4.5c-0.8-1.8-0.9-3.8-0.6-5.8c0.4-1.9,1.3-3.7,2.7-5.1
		c1.4-1.4,3.2-2.4,5.1-2.7c1.9-0.4,3.9-0.2,5.8,0.6c1.8,0.8,3.4,2,4.5,3.7c1.1,1.6,1.7,3.6,1.7,5.6c0,1.3-0.3,2.6-0.8,3.8
		c-0.5,1.2-1.2,2.3-2.2,3.2c-0.9,0.9-2,1.7-3.2,2.2C161.6,311.7,160.3,312,159,312z"/>
</g>
</svg>
